X: 6
T:John McClure's
M:C|
L:1/8
Q:140
C:Chris Grotewohl
R:Reel
K:DMix
cAGc AD D/2D/2D|BAGB A/2c/2A FA|cAGc AD D/2D/2D|{A}GFGA G/2G/2G FG:|
Ad c/2d/2e dcAG|cAGc AD D/2D/2D|Ad c/2d/2e dcAF|{A}GFGA G/2G/2G FG:|
